devices/symbolic/display-projector-symbolic.svg

<svg xmlns="http://www.w3.org/2000/svg" viewBox="0 0 16 16">
  <defs id="defs3051">
    <style type="text/css" id="current-color-scheme">
      .ColorScheme-Text {
        color:#4d4d4d;
      }
      </style>
  </defs>
 <path 
     style="fill:#bebebe;fill-opacity:1;stroke:none" 
     class="ColorScheme-Text"
     d="M 2.0019531 3 C 0.001953125 3 0.001953125 5 0.001953125 5 L 0.001953125 11 C 0.001953125 13 2.0019531 13 2.0019531 13 L 14.001953 13 C 14.001953 13 16.001953 13 16.001953 11 L 16.001953 5 C 16.001953 5 16.001953 3 14.001953 3 L 2.0019531 3 z M 11.001953 5 C 12.658803 5 14.001953 6.34315 14.001953 8 C 14.001953 9.65685 12.658803 11 11.001953 11 C 9.3451031 11 8.0019531 9.65685 8.0019531 8 C 8.0019531 6.34315 9.3451031 5 11.001953 5 z "
     />
</svg>

<svg xmlns="http://www.w3.org/2000/svg" viewBox="0 0 16 16">
  <path fill="#bebebe" d="M2.002 3c-2 0-2 2-2 2v6c0 2 2 2 2 2h12s2 0 2-2V5s0-2-2-2h-12zm9 2a3 3 0 1 1 0 6 3 3 0 0 1 0-6z"/>
</svg>
